X: 1790
T: Ar Lan Y Mor
R: barndance
M: 4/4
K: Gmajor
d2 d3 e|d6|B2 c3 d|B6|d2 d3 e|d6|B2 c3 d|B6|
d2 d3 e|d6|d2 c2 B2|G6|G2 G3 e|d6|BG A3 F|G6|
d2 d3 d|d6|B2 c2 d2|cB- B4|d2 d3 d|d6|B2 c2 d2|cB- B4|
d2 d2 d2|d6|B2 A2 G2|EG- G4|G2 G2 e2|d6|B2 A2 B2|AG- G4-|G6||

